X:16
T:The Rose
S:Bacon (MDT)
A:Field Town
O:English
R:Jig
P:AA2B2(C2B2)2
M:6/8
Q:3/8=104
K:A
P:A
(3E/F/G/ | AEA A2B | cBc def | ecA dBG | A>BA A2 |]
P:B
c/d/ | efe ecA | Bdc BGE | FGA dBG | A>BA A2 |]
P:C
(3E/F/G/ | (2AE A3 | A3 B3 | (2cB c3 | (2de f3 |\
(2ec A3 | (2dB G3 | (2AB A3 | A3 A2 |]
